X:1
T:Benedic Anima Mea
T:Lassus
T:Benedic Anima Mea
C:Lassus
%%score [ 1 2 3 4 ]
L:1/8
Q:1/2=84
M:4/2
K:C
V:1 treble nm="SOPRANO" snm="S."
V:2 treble nm="ALTO" snm="A."
V:3 treble-8 transpose=-12 nm="TENOR" snm="T."
V:4 bass nm="BASS" snm="B."
V:1
"^Bless the Lord, my soul,and forget not all his benefits,be made young again like an eagle." A12 _B4 | %1
w: Be- ne-|
 A8 G4 F4 | E4 G8 F4 | E6 E2 F8- | F8 z8 | z16 | z4 A8 _B4 | A8 G4 F4 | E4 G8 F4 | E6 E2 F4 A4- | %10
w: dic, a- ni-|ma me- a|Do- mi- no,|_||Be- ne-|dic, a- ni-|ma me- a|Do- mi- no, a-|
 A2 A2 A4 G8 | E8 F6 F2 | E4 E4 c8 | A6 G2 F4 G4 | A4 A6 =B2 c4- | c2 B2 A6 ^G^F G4 | A8 z4 d4- | %17
w: * ni- ma me-|a, Do- mi-|no et no-|li _ _ ob-|li- vi- * *||sci o-|
 d4 c4 A4 A4- | A2 G2 F2 E2 G8 | A4 G6 E2 F4 | E4 A6 GF G4 | C4 c8 B4 | G4 A4 G6 G2 | ^F4 G4 E8 | %24
w: * mnes re- tri-||bu- ti- * o-|nes e- * * *|ius, o- mnes|re- tri- bu- ti-|o- nes e-|
 D8 z4 G4 | =F4 F4 E6 E2 | D8 E6 F2 | G8 z4 A4 | G4 G4 F6 F2 | E4 A8 G4 | c4 A4 A8 | A8 G8- | G16 | %33
w: jus, et|ro- ne- va- bi-|tur, _ _|_ et|re- no- va- bi-|tur si- cut|a- qui- la|ju- ven-||
 F16- | F8 E8- | E16- | E8 D8- | D16- | D16- | D16 |] %40
w: tus|_ tu-||* a.|_|||
V:2
 z8 D8- | D4 F4 E4 D4 | C4 B,4 C2 B,2 D4- | D4 ^C4 D6 D2 | D8 z8 | z16 | z8 D8- | D4 F4 E4 D4 | %8
w: Be-|* ne- dic, a-|ni- ma me- * *|* a Do- mi-|no,||Be-|* ne- dic, a-|
 C4 B,4 C2 B,2 D4- | D2 ^CB, C4 D4 F4- | F2 F2 F4 E4 D4- | D2 ^CB, C4 D6 D2 | A,4 z4 z4 E4 | %13
w: ni- ma me- * *|* * * * a, a-|* ni- ma me- a|_ _ _ _ Do- mi-|no et|
 F8 D8- | D4 C4 F4 E4- | E2 DC D4 E4 E4- | E4 F4 D6 E2 | F4 E4 F8 | E4 C4 D4 E4 | %19
w: no- li|_ ob- li- vi-|* * * * sci, ob-|* li- vi- *|* sci o-|mnes re- tri- bu-|
 A,4 D4 C2 B,2 D4 | C6 D2 E8 | E8 z4 G4- | G4 F4 D4 E4 | D8 C4 B,4- | B,4 B,4 G,8 | A,4 D4 C4 C4 | %26
w: ti- o- * * nes|e- * *|jus, o-|* mnes re- tri-|bu- ti- o-|* nes e-|jus, et re- no-|
 B,6 B,2 A,4 E4- | E4 D4 D4 C4- | C2 C2 B,4 A,8- | A,4 E4 E8- | E4 E4 F8 | E8 E4 D4 | E8 D4 D4 | %33
w: va- bi- tur, et|_ re- no- va-|* bi- tur si-|* cut a-|* qui- la|ju- ven- tus|tu- a, ju-|
 D4 C4 D8 | C4 C4 C4 =B,4 | C8 B,4 B,4 | C4 C4 G,4 A,4 | _B,8 A,4 A,4 | _B,16 | A,16 |] %40
w: ven- tus tu-|a, ju- ven- tus|tu- a, ju-|ven- tus tu- a,|ju- ven- tus|tu-|a.|
V:3
 z16 | z16 | z16 | A12 _B4 | A8 G4 F4 | E4 G8 F4 | E6 E2 F4 F4- | F2 G2 A2 B2 c4 d4 | A4 E8 D4 | %9
w: |||Be- ne-|dic, a- ni-|ma me- a|Do- mi- no, be-|* * * * * ne-|dic, a- ni-|
 A12 d4 | =c4 c8 _B4 | A12 A4 | =c8 A8 | z8 z4 d4 | f4 e4 d4 G4 | A6 B2 c2 BA B4- | %16
w: ma me-|a, Do- mi-|no et|no- li,|et|no- li- ob- li-|vi- * * * * *|
 B2 A2 A6 =G=F G4 | A8 d8 | c4 A4 B4 c4- | c4 B4 G4 A4 | A8 B8 | A8 e8- | e4 d4 B4 c4 | %23
w: |sci o-|mnes re- tri- bu-|* ti- o- nes|e- *|jus, o-|* mnes re- tri-|
 A4 G4 G6 A2 | B2 c2 d6 ^cB c4 | d4 A4 A8 | z4 d4 c4 c4 | B6 B2 A8 | e6 d2 c4 d4- | %29
w: bu- ti- o- *||nes e- jus,|et re- no-|va- bi- tur|si- * * cut|
 d2 cB c4 B6 B2 | A4 c4 c4 d4- | d2 cB c4 B8 | B4 c6 BA B4 | A8 A4 _B4- | B2 AG A4 G8 | %35
w: _ _ _ _ a- qui-|la ju- ven- tus,|_ _ _ _ ju-|ve- tus, _ _ _|ju- ven- tus,|_ _ _ _ ju-|
 G4 A6 =GF G4 | A8 _B4 F4 | F4 G6 ^FE F4 | G16 | ^F16 |] %40
w: ven- tus _ _ _|tu- a, ju-|ven- tus _ _ _|tu-|a.|
V:4
 z16 | z16 | z16 | z8 D,8- | D,4 F,4 E,4 D,4 | C,4 B,,4 C,2 B,,2 D,4- | D,4 ^C,4 D,6 D,2 | D,8 z8 | %8
w: |||Be-|* ne- dic, a-|ni- ma me- * *|* a Do- mi-|no,|
 z16 | A,,8 D,6 D,2 | F,8 C,4 G,,4 | A,,6 A,,2 D,8 | z16 | z4 D,4 _B,8 | A,8 z4 E,4 | F,8 E,8 | %16
w: |a- * ni-|ma me- a,|Do- mi- no||et no-|li, et|no- li|
 ^C,4 D,4 _B,,8 | A,,8 z8 | A,8 G,4 E,4 | F,4 G,4 E,4 D,4 | A,,4 F,4 E,8 | z4 A,8 G,4 | %22
w: ob- li- vi-|sci|o- mnes re-|tri- bu- ti- o-|nes e- jus,|o- mnes|
 E,4 F,4 G,4 C,4 | D,4 B,,4 C,2 D,2 E,2 F,2 | G,6 F,2 E,8 | D,8 z8 | z8 z4 A,4 | G,4 G,4 F,6 F,2 | %28
w: re- tri- bu- ti-|o- nes e- * * *||jus,|et|re- no- va- bi-|
 E,8 F,4 D,4 | A,6 A,2 E,8 | z4 A,4 F,4 D,4 | A,8 E,4 G,4 | E,4 C,4 G,8 | D,4 F,4 D,4 _B,,4 | %34
w: tur si- cut|a- qui- la|ju- ven- tus|tu- a, ju-|ven- tus tu-|a, ju- ven- tus|
 F,8 C,4 E,4 | C,4 A,,4 E,8 | A,,8 z4 D,4 | _B,,4 G,,4 D,8 | G,,16 | D,16 |] %40
w: tu- a, ju-|ven- tus tu-|a, ju-|ven- tus tu-||a.|

